; generated by Slic3r 1.34.0-prusa3d-linux64 on 2017-07-13 at 17:30:30

; external perimeters extrusion width = 0.60mm
; perimeters extrusion width = 0.43mm
; infill extrusion width = 0.70mm
; solid infill extrusion width = 0.70mm
; top infill extrusion width = 0.43mm
; support material extrusion width = 0.35mm

M107
M115 U3.0.9 ; tell printer latest fw version
M83  ; extruder relative mode
M104 S215 ; set extruder temp
M140 S55 ; set bed temp
M190 S55 ; wait for bed temp
M109 S215 ; wait for extruder temp
G28 W ; home all without mesh bed level
G80 ; mesh bed leveling
G1 Y-3.0 F1000.0 ; go outside pritn area
G1 X60.0 E9.0  F1000.0 ; intro line
G1 X100.0 E12.5  F1000.0 ; intro line
G21 ; set units to millimeters
G90 ; use absolute coordinates
M83 ; use relative distances for extrusion
G1 E-0.80000 F2100.00000
G1 Z0.500 F6000.000
G1 X98.229 Y30.955 F6000.000
G1 Z0.200 F6000.000
G1 E0.80000 F2100.00000
M204 S1000
G1 F2100
G1 X105.878 Y30.909 E0.21584
G1 X106.677 Y31.049 E0.02289
G1 X107.385 Y31.451 E0.02300
G1 X134.442 Y54.238 E0.99822
G1 X134.985 Y54.900 E0.02416
G1 X135.182 Y55.366 E0.01427
G1 X135.275 Y55.863 E0.01427
G1 X135.266 Y58.409 E0.07184
G1 X133.926 Y63.955 E0.16100
G1 X130.281 Y72.175 E0.25374
G1 X129.873 Y72.755 E0.02002
G1 X129.308 Y73.190 E0.02013
G1 X128.590 Y73.448 E0.02151
G1 X105.082 Y77.716 E0.67423
G1 X99.371 Y77.723 E0.16115
G1 X98.846 Y77.659 E0.01491
G1 X98.281 Y77.447 E0.01704
G1 X97.788 Y77.099 E0.01704
G1 X96.765 Y75.749 E0.04779
G1 X96.540 Y75.180 E0.01726
G1 X93.465 Y62.934 E0.35630
G1 X93.397 Y62.391 E0.01544
G1 X93.408 Y58.450 E0.11120
G1 X96.365 Y32.812 E0.72829
G1 X96.601 Y32.159 E0.01960
G1 X97.016 Y31.602 E0.01960
G1 X97.575 Y31.189 E0.01960
G1 X98.172 Y30.975 E0.01791
G1 F4800
G1 X100.001 Y30.960 E-0.76000
G1 E-0.04000 F2100.00000
G1 Z0.700 F6000.000
G1 X119.622 Y56.638 F6000.000
G1 Z0.200 F6000.000
G1 E0.80000 F2100.00000
G1 F1680
G1 X132.318 Y56.638 E0.35826
G1 X132.318 Y57.544 E0.02556
G1 X131.517 Y57.544 E0.02262
G1 X130.068 Y58.269 E0.04570
G1 X130.068 Y60.637 E0.06684
G1 X131.068 Y61.337 E0.03445
G1 X131.068 Y63.037 E0.04798
G1 X127.568 Y67.197 E0.15341
G1 X127.568 Y70.524 E0.09389
G1 X123.242 Y70.524 E0.12207
G1 X123.242 Y69.774 E0.02116
G1 X122.692 Y69.774 E0.01552
G1 X122.692 Y60.898 E0.25047
G1 X122.992 Y60.898 E0.00847
G1 X122.992 Y57.544 E0.09465
G1 X119.622 Y57.544 E0.09510
G1 X119.622 Y56.698 E0.02387
G1 F4800
G1 X121.451 Y56.690 E-0.76000
G1 E-0.04000 F2100.00000
G1 Z0.700 F6000.000
G1 X130.445 Y58.502 F6000.000
G1 Z0.200 F6000.000
G1 E0.80000 F2100.00000
G1 F1260
G1 X130.445 Y60.441 E0.05472
G1 X131.445 Y61.141 E0.03445
G1 X131.445 Y63.175 E0.05740
G1 X127.945 Y67.335 E0.15341
G1 X127.945 Y70.901 E0.10065
G1 X122.865 Y70.901 E0.14335
G1 X122.865 Y70.151 E0.02116
G1 X122.315 Y70.151 E0.01552
G1 X122.315 Y60.521 E0.27175
G1 X122.615 Y60.521 E0.00847
G1 X122.615 Y57.921 E0.07337
G1 X119.245 Y57.921 E0.09510
G1 X119.245 Y56.261 E0.04684
G1 X132.695 Y56.261 E0.37954
G1 X132.695 Y57.921 E0.04684
G1 X131.606 Y57.921 E0.03075
G1 X130.499 Y58.475 E0.03492
G1 X130.047 Y58.535 F6000.000
G1 F4800
G1 X130.449 Y60.303 E-0.76000
G1 E-0.04000 F2100.00000
G1 Z0.700 F6000.000
G1 X132.116 Y57.431 F6000.000
G1 Z0.200 F6000.000
G1 E0.80000 F2100.00000
G1 F2520
G1 X131.606 Y56.921 E0.02052
G1 X131.068 Y56.921 E0.01530
G1 X131.422 Y57.275 E0.01425
G1 X131.064 Y57.455 E0.01140
G1 X130.530 Y56.921 E0.02146
G1 X129.993 Y56.921 E0.01530
G1 X130.705 Y57.634 E0.02868
G1 X130.347 Y57.813 E0.01140
G1 X129.455 Y56.921 E0.03589
G1 X128.917 Y56.921 E0.01530
G1 X129.988 Y57.992 E0.04310
G1 X129.785 Y58.094 E0.00645
G1 X129.785 Y58.327 E0.00664
G1 X128.379 Y56.921 E0.05658
G1 X127.842 Y56.921 E0.01530
G1 X129.785 Y58.865 E0.07822
G1 X129.785 Y59.403 E0.01530
G1 X127.304 Y56.921 E0.09986
G1 X126.766 Y56.921 E0.01530
G1 X129.785 Y59.940 E0.12149
G1 X129.785 Y60.478 E0.01530
G1 X126.229 Y56.921 E0.14313
G1 X125.691 Y56.921 E0.01530
G1 X130.785 Y62.016 E0.20501
G1 X130.785 Y62.554 E0.01530
G1 X125.153 Y56.921 E0.22665
G1 X124.615 Y56.921 E0.01530
G1 X130.714 Y63.020 E0.24540
G1 X130.468 Y63.312 E0.01086
G1 X124.078 Y56.921 E0.25715
G1 X123.540 Y56.921 E0.01530
G1 X130.222 Y63.604 E0.26890
G1 X129.977 Y63.896 E0.01086
G1 X123.002 Y56.921 E0.28066
G1 X122.464 Y56.921 E0.01530
G1 X122.805 Y57.262 E0.01369
G1 X122.267 Y57.262 E0.01530
G1 X121.927 Y56.921 E0.01369
G1 X121.389 Y56.921 E0.01530
G1 X121.729 Y57.262 E0.01369
G1 X121.192 Y57.262 E0.01530
G1 X120.851 Y56.921 E0.01369
G1 X120.314 Y56.921 E0.01530
G1 X120.654 Y57.262 E0.01369
G1 X120.116 Y57.262 E0.01530
G1 X119.736 Y56.881 E0.01531
G1 F4800
G1 X120.116 Y57.262 E-0.22368
G1 F4800
G1 X120.654 Y57.262 E-0.22349
G1 F4800
G1 X120.314 Y56.921 E-0.20000
G1 F4800
G1 X120.585 Y56.921 E-0.11282
G1 E-0.04000 F2100.00000
G1 Z0.700 F6000.000
G1 X129.851 Y64.308 F6000.000
G1 Z0.200 F6000.000
G1 E0.80000 F2100.00000
G1 F2520
G1 X123.275 Y57.732 E0.26463
G1 X123.275 Y58.270 E0.01530
G1 X129.485 Y64.480 E0.24990
G1 X129.239 Y64.772 E0.01086
G1 X123.275 Y58.807 E0.24001
G1 X123.275 Y59.345 E0.01530
G1 X128.994 Y65.064 E0.23012
G1 X128.748 Y65.356 E0.01086
G1 X123.275 Y59.883 E0.22023
G1 X123.275 Y60.421 E0.01530
G1 X128.502 Y65.648 E0.21035
G1 X128.257 Y65.940 E0.01086
G1 X123.275 Y60.958 E0.20046
G1 X123.275 Y61.181 E0.00634
G1 X122.975 Y61.181 E0.00854
G1 X122.975 Y61.196 E0.00042
G1 X128.011 Y66.232 E0.20264
G1 X127.765 Y66.524 E0.01086
G1 X122.975 Y61.734 E0.19276
G1 X122.975 Y62.272 E0.01530
G1 X127.520 Y66.816 E0.18287
G1 X127.285 Y67.094 E0.01035
G1 X127.285 Y67.120 E0.00072
G1 X122.975 Y62.809 E0.17345
G1 X122.975 Y63.347 E0.01530
G1 X127.285 Y67.657 E0.17345
G1 X127.285 Y68.195 E0.01530
G1 X122.975 Y63.885 E0.17345
G1 X122.975 Y64.422 E0.01530
G1 X127.285 Y68.733 E0.17345
G1 X127.285 Y69.270 E0.01530
G1 X122.975 Y64.960 E0.17345
G1 X122.975 Y65.498 E0.01530
G1 X127.285 Y69.808 E0.17345
G1 X127.285 Y70.242 E0.01233
G1 X127.181 Y70.242 E0.00297
G1 X122.975 Y66.036 E0.16925
G1 X122.975 Y66.573 E0.01530
G1 X126.643 Y70.242 E0.14761
G1 X126.106 Y70.242 E0.01530
G1 X122.975 Y67.111 E0.12597
G1 X122.975 Y67.649 E0.01530
G1 X125.568 Y70.242 E0.10433
G1 X125.030 Y70.242 E0.01530
G1 X122.975 Y68.187 E0.08269
G1 X122.975 Y68.724 E0.01530
G1 X124.492 Y70.242 E0.06105
G1 X123.955 Y70.242 E0.01530
G1 X122.806 Y69.092 E0.04624
G1 F4800
G1 X123.955 Y70.242 E-0.67545
G1 F4800
G1 X124.158 Y70.242 E-0.08455
G1 E-0.04000 F2100.00000
G1 Z0.700 F6000.000
G1 X109.057 Y56.484 F6000.000
G1 Z0.200 F6000.000
G1 E0.80000 F2100.00000
G1 F1680
G1 X109.057 Y61.779 E0.14942
G1 X108.255 Y61.779 E0.02262
G1 X106.807 Y62.503 E0.04570
G1 X106.807 Y64.872 E0.06684
G1 X107.807 Y65.572 E0.03445
G1 X107.807 Y67.272 E0.04798
G1 X104.307 Y71.432 E0.15341
G1 X104.307 Y74.759 E0.09389
G1 X99.981 Y74.759 E0.12207
G1 X99.981 Y74.009 E0.02116
G1 X99.431 Y74.009 E0.01552
G1 X99.431 Y65.133 E0.25047
G1 X99.731 Y65.133 E0.00847
G1 X99.731 Y61.779 E0.09465
G1 X96.361 Y61.779 E0.09510
G1 X96.361 Y59.273 E0.07071
G1 X99.281 Y59.273 E0.08240
G1 X99.281 Y33.873 E0.71676
G1 X105.397 Y33.873 E0.17260
G1 X109.995 Y55.733 E0.63037
G1 X109.104 Y56.447 E0.03221
G1 X109.434 Y56.665 F6000.000
G1 F1260
G1 X109.434 Y62.156 E0.15495
G1 X108.344 Y62.156 E0.03075
G1 X107.184 Y62.736 E0.03661
G1 X107.184 Y64.676 E0.05472
G1 X108.184 Y65.376 E0.03445
G1 X108.184 Y67.410 E0.05740
G1 X104.684 Y71.570 E0.15341
G1 X104.684 Y75.136 E0.10065
G1 X99.604 Y75.136 E0.14335
G1 X99.604 Y74.386 E0.02116
G1 X99.054 Y74.386 E0.01552
G1 X99.054 Y64.756 E0.27175
G1 X99.354 Y64.756 E0.00847
G1 X99.354 Y62.156 E0.07337
G1 X95.984 Y62.156 E0.09510
G1 X95.984 Y58.896 E0.09199
G1 X98.904 Y58.896 E0.08240
G1 X98.904 Y33.496 E0.71676
G1 X105.703 Y33.496 E0.19188
G1 X110.412 Y55.883 E0.64555
G1 X109.481 Y56.628 E0.03365
G1 X109.098 Y56.883 F6000.000
G1 F4800
G1 X109.465 Y58.456 E-0.76000
G1 E-0.04000 F2100.00000
G1 Z0.700 F6000.000
G1 X106.694 Y64.455 F6000.000
G1 Z0.200 F6000.000
G1 E0.80000 F2100.00000
G1 F2520
G1 X99.564 Y57.325 E0.28505
G1 X99.564 Y56.791 E0.01510
G1 X106.524 Y63.751 E0.27826
G1 X106.524 Y63.217 E0.01510
G1 X99.564 Y56.257 E0.27826
G1 X99.564 Y55.723 E0.01510
G1 X106.524 Y62.683 E0.27826
G1 X106.524 Y62.329 E0.01002
G1 X106.644 Y62.269 E0.00379
G1 X99.564 Y55.189 E0.28305
G1 X99.564 Y54.654 E0.01510
G1 X107.000 Y62.091 E0.29729
G1 X107.356 Y61.912 E0.01126
G1 X99.564 Y54.120 E0.31153
G1 X99.564 Y53.586 E0.01510
G1 X107.712 Y61.734 E0.32577
G1 X108.068 Y61.556 E0.01126
G1 X99.564 Y53.052 E0.34001
G1 X99.564 Y52.517 E0.01510
G1 X108.543 Y61.496 E0.35896
G1 X108.774 Y61.496 E0.00654
G1 X108.774 Y61.193 E0.00856
G1 X99.564 Y51.983 E0.36821
G1 X99.564 Y51.449 E0.01510
G1 X108.774 Y60.659 E0.36821
G1 X108.774 Y60.125 E0.01510
G1 X99.564 Y50.915 E0.36821
G1 X99.564 Y50.381 E0.01510
G1 X108.774 Y59.591 E0.36821
G1 X108.774 Y59.057 E0.01510
G1 X99.564 Y49.846 E0.36821
G1 X99.564 Y49.312 E0.01510
G1 X108.774 Y58.522 E0.36821
G1 X108.774 Y57.988 E0.01510
G1 X99.564 Y48.778 E0.36821
G1 X99.564 Y48.244 E0.01510
G1 X108.774 Y57.454 E0.36821
G1 X108.774 Y56.920 E0.01510
G1 X99.564 Y47.709 E0.36821
G1 X99.564 Y47.175 E0.01510
G1 X108.774 Y56.385 E0.36821
G1 X108.774 Y56.348 E0.00106
G1 X109.050 Y56.127 E0.00999
G1 X99.564 Y46.641 E0.37925
G1 X99.564 Y46.107 E0.01510
G1 X109.347 Y55.890 E0.39111
G1 X109.644 Y55.652 E0.01074
G1 X99.564 Y45.573 E0.40298
G1 X99.564 Y45.038 E0.01510
G1 X109.559 Y55.033 E0.39959
G1 X109.416 Y54.357 E0.01954
G1 X99.564 Y44.504 E0.39390
G1 X99.564 Y43.970 E0.01510
G1 X109.274 Y53.680 E0.38821
G1 X109.132 Y53.004 E0.01954
G1 X99.564 Y43.436 E0.38252
G1 X99.564 Y42.901 E0.01510
G1 X108.990 Y52.327 E0.37684
G1 X108.847 Y51.651 E0.01954
G1 X99.564 Y42.367 E0.37115
G1 X99.564 Y41.833 E0.01510
G1 X108.705 Y50.974 E0.36546
G1 X108.563 Y50.298 E0.01954
G1 X99.564 Y41.299 E0.35977
G1 X99.564 Y40.765 E0.01510
G1 X108.420 Y49.621 E0.35408
G1 X108.278 Y48.945 E0.01954
G1 X99.564 Y40.230 E0.34839
G1 X99.564 Y39.696 E0.01510
G1 X108.136 Y48.268 E0.34271
G1 X107.994 Y47.592 E0.01954
G1 X99.564 Y39.162 E0.33702
G1 X99.564 Y38.628 E0.01510
G1 X107.851 Y46.915 E0.33133
G1 X107.709 Y46.239 E0.01954
G1 X99.564 Y38.093 E0.32564
G1 X99.564 Y37.559 E0.01510
G1 X107.567 Y45.562 E0.31995
G1 X107.425 Y44.886 E0.01954
G1 X99.564 Y37.025 E0.31427
G1 X99.564 Y36.491 E0.01510
G1 X107.282 Y44.209 E0.30858
G1 X107.140 Y43.533 E0.01954
G1 X99.564 Y35.957 E0.30289
G1 X99.564 Y35.422 E0.01510
G1 X106.998 Y42.856 E0.29720
G1 X106.855 Y42.180 E0.01954
G1 X99.564 Y34.888 E0.29151
G1 X99.564 Y34.354 E0.01510
G1 X106.713 Y41.503 E0.28583
G1 X106.571 Y40.827 E0.01954
G1 X99.900 Y34.156 E0.26669
G1 X100.434 Y34.156 E0.01510
G1 X106.429 Y40.150 E0.23964
G1 X106.286 Y39.474 E0.01954
G1 X100.968 Y34.156 E0.21260
G1 X101.503 Y34.156 E0.01510
G1 X106.144 Y38.797 E0.18555
G1 X106.002 Y38.121 E0.01954
G1 X102.037 Y34.156 E0.15851
G1 X102.571 Y34.156 E0.01510
G1 X105.859 Y37.444 E0.13146
G1 X105.717 Y36.768 E0.01954
G1 X103.105 Y34.156 E0.10442
G1 X103.640 Y34.156 E0.01510
G1 X105.575 Y36.091 E0.07737
G1 X105.433 Y35.415 E0.01954
G1 X104.174 Y34.156 E0.05033
G1 X104.708 Y34.156 E0.01510
G1 X105.510 Y34.958 E0.03206
G1 F4800
G1 X104.708 Y34.156 E-0.47135
G1 F4800
G1 X104.174 Y34.156 E-0.22204
G1 F4800
G1 X104.287 Y34.269 E-0.06662
G1 E-0.04000 F2100.00000
G1 Z0.700 F6000.000
G1 X96.474 Y61.181 F6000.000
G1 Z0.200 F6000.000
G1 E0.80000 F2100.00000
G1 F2520
G1 X96.790 Y61.496 E0.01262
G1 X97.324 Y61.496 E0.01510
G1 X96.644 Y60.816 E0.02720
G1 X96.644 Y60.282 E0.01510
G1 X97.858 Y61.496 E0.04855
G1 X98.392 Y61.496 E0.01510
G1 X96.644 Y59.748 E0.06991
G1 X96.644 Y59.556 E0.00542
G1 X96.986 Y59.556 E0.00969
G1 X98.927 Y61.496 E0.07757
G1 X99.461 Y61.496 E0.01510
G1 X97.521 Y59.556 E0.07757
G1 X98.055 Y59.556 E0.01510
G1 X106.676 Y68.177 E0.34466
G1 X106.920 Y67.887 E0.01072
G1 X98.589 Y59.556 E0.33306
G1 X99.123 Y59.556 E0.01510
G1 X107.164 Y67.597 E0.32146
G1 X107.408 Y67.307 E0.01072
G1 X99.564 Y59.462 E0.31361
G1 X99.564 Y58.928 E0.01510
G1 X107.524 Y66.888 E0.31824
G1 X107.524 Y66.354 E0.01510
G1 X99.564 Y58.394 E0.31824
G1 X99.564 Y57.860 E0.01510
G1 X107.694 Y65.990 E0.32502
G1 F4800
G1 X106.401 Y64.697 E-0.76000
G1 E-0.04000 F2100.00000
G1 Z0.700 F6000.000
G1 X106.552 Y68.588 F6000.000
G1 Z0.200 F6000.000
G1 E0.80000 F2100.00000
G1 F2520
G1 X100.014 Y62.049 E0.26140
G1 X100.014 Y62.583 E0.01510
G1 X106.188 Y68.757 E0.24682
G1 X105.943 Y69.047 E0.01072
G1 X100.014 Y63.118 E0.23707
G1 X100.014 Y63.652 E0.01510
G1 X105.699 Y69.338 E0.22731
G1 X105.455 Y69.628 E0.01072
G1 X100.014 Y64.186 E0.21755
G1 X100.014 Y64.720 E0.01510
G1 X105.211 Y69.918 E0.20779
G1 X104.967 Y70.208 E0.01072
G1 X100.014 Y65.254 E0.19803
G1 X100.014 Y65.416 E0.00457
G1 X99.714 Y65.416 E0.00848
G1 X99.714 Y65.489 E0.00205
G1 X104.723 Y70.498 E0.20027
G1 X104.479 Y70.788 E0.01072
G1 X99.714 Y66.023 E0.19051
G1 X99.714 Y66.557 E0.01510
G1 X104.235 Y71.078 E0.18075
G1 X104.024 Y71.329 E0.00926
G1 X104.024 Y71.402 E0.00206
G1 X99.714 Y67.091 E0.17232
G1 X99.714 Y67.626 E0.01510
G1 X104.024 Y71.936 E0.17232
G1 X104.024 Y72.470 E0.01510
G1 X99.714 Y68.160 E0.17232
G1 X99.714 Y68.694 E0.01510
G1 X104.024 Y73.004 E0.17232
G1 X104.024 Y73.539 E0.01510
G1 X99.714 Y69.228 E0.17232
G1 X99.714 Y69.762 E0.01510
G1 X104.024 Y74.073 E0.17232
G1 X104.024 Y74.476 E0.01141
G1 X103.893 Y74.476 E0.00369
G1 X99.714 Y70.297 E0.16710
G1 X99.714 Y70.831 E0.01510
G1 X103.359 Y74.476 E0.14574
G1 X102.825 Y74.476 E0.01510
G1 X99.714 Y71.365 E0.12438
G1 X99.714 Y71.899 E0.01510
G1 X102.291 Y74.476 E0.10302
G1 X101.756 Y74.476 E0.01510
G1 X99.714 Y72.434 E0.08167
G1 X99.714 Y72.968 E0.01510
G1 X101.222 Y74.476 E0.06031
G1 X100.688 Y74.476 E0.01510
G1 X99.544 Y73.332 E0.04574
M106 S255
M104 S210 ; set temperature
G1 F4800
G1 X100.688 Y74.476 E-0.67242
G1 F4800
G1 X100.899 Y74.476 E-0.08758
G1 E-0.04000 F2100.00000
G1 Z0.700 F6000.000
G1 X122.845 Y69.621 F6000.000
G1 Z0.550 F6000.000
G1 E0.80000 F2100.00000
M204 S800
G1 F1898.58
G1 X122.845 Y61.051 E0.39832
G1 X123.145 Y61.051 E0.01394
G1 X123.145 Y57.391 E0.17010
G1 X119.775 Y57.391 E0.15663
G1 X119.775 Y56.791 E0.02790
G1 X132.165 Y56.791 E0.57586
G1 X132.165 Y57.391 E0.02790
G1 X131.481 Y57.391 E0.03183
G1 X129.915 Y58.174 E0.08133
G1 X129.915 Y60.717 E0.11817
G1 X130.915 Y61.417 E0.05673
G1 X130.915 Y62.982 E0.07273
G1 X127.415 Y67.142 E0.25267
G1 X127.415 Y70.371 E0.15012
G1 X123.395 Y70.371 E0.18685
G1 X123.395 Y69.621 E0.03486
G1 X122.905 Y69.621 E0.02277
M204 S1000
G1 X122.905 Y70.061 F6000.000
M204 S800
G1 F1423.94
G1 X122.405 Y70.061 E0.03436
G1 X122.405 Y60.611 E0.64960
G1 X122.705 Y60.611 E0.02062
G1 X122.705 Y57.831 E0.19110
G1 X119.335 Y57.831 E0.23166
G1 X119.335 Y56.351 E0.10174
G1 X132.605 Y56.351 E0.91219
G1 X132.605 Y57.831 E0.10174
G1 X131.585 Y57.831 E0.07017
G1 X130.355 Y58.446 E0.09447
G1 X130.355 Y60.488 E0.14034
G1 X131.355 Y61.188 E0.08391
G1 X131.355 Y63.142 E0.13435
G1 X127.855 Y67.302 E0.37371
G1 X127.855 Y70.811 E0.24124
G1 X122.955 Y70.811 E0.33683
G1 X122.955 Y70.071 E0.05088
M204 S1000
G1 X122.723 Y69.705 F6000.000
G1 X123.481 Y70.062 F6000.000
M204 S2000
G1 F2847.87
G1 X130.829 Y62.714 E0.88394
M204 S1000
G1 F4800
G1 X129.536 Y64.007 E-0.76000
G1 E-0.04000 F2100.00000
G1 Z1.050 F6000.000
G1 X129.993 Y58.039 F6000.000
G1 Z0.550 F6000.000
G1 E0.80000 F2100.00000
M204 S2000
G1 F2847.87
G1 X130.873 Y57.159 E0.10592
G1 X129.955 Y57.159 E0.07814
G1 X123.213 Y63.901 E0.81105
G1 X123.213 Y64.819 E0.07814
G1 X129.548 Y58.484 E0.76215
G1 X129.548 Y59.402 E0.07814
G1 X123.213 Y65.738 E0.76215
G1 X123.213 Y66.656 E0.07814
G1 X129.548 Y60.321 E0.76215
G1 X129.548 Y60.908 E0.04993
G1 X129.743 Y61.044 E0.02025
G1 X123.213 Y67.575 E0.78562
G1 X123.213 Y68.494 E0.07814
G1 X130.283 Y61.423 E0.85062
G1 X130.548 Y61.608 E0.02747
G1 X130.548 Y62.077 E0.03988
G1 X123.089 Y69.535 E0.89727
M204 S1000
G1 F4800
G1 X124.382 Y68.242 E-0.76000
G1 E-0.04000 F2100.00000
G1 Z1.050 F6000.000
G1 X126.014 Y70.285 F6000.000
G1 Z0.550 F6000.000
G1 E0.80000 F2100.00000
M204 S2000
G1 F2847.87
G1 X127.048 Y69.251 E0.12442
G1 X127.048 Y68.332 E0.07814
