; generated by Slic3r 1.34.0-prusa3d-linux64 on 2017-05-12 at 13:23:36

; external perimeters extrusion width = 0.60mm
; perimeters extrusion width = 0.43mm
; infill extrusion width = 0.70mm
; solid infill extrusion width = 0.70mm
; top infill extrusion width = 0.43mm
; support material extrusion width = 0.35mm

M107
M115 U3.0.9 ; tell printer latest fw version
M83  ; extruder relative mode
M104 S215 ; set extruder temp
M140 S55 ; set bed temp
M190 S55 ; wait for bed temp
M109 S215 ; wait for extruder temp
G28 W ; home all without mesh bed level
G80 ; mesh bed leveling
G1 Y-3.0 F1000.0 ; go outside pritn area
G1 X60.0 E9.0  F1000.0 ; intro line
G1 X100.0 E12.5  F1000.0 ; intro line
G21 ; set units to millimeters
G90 ; use absolute coordinates
M83 ; use relative distances for extrusion
G1 E-0.80000 F2100.00000
G1 Z0.500 F6000.000
G1 X46.216 Y39.070 F6000.000
G1 Z0.200 F6000.000
G1 E0.80000 F2100.00000
M204 S1000
G1 F2100
G1 X48.391 Y36.750 E0.08973
G1 X50.756 Y34.624 E0.08975
G1 X53.170 Y32.792 E0.08552
G1 X54.473 Y31.924 E0.04418
G1 X57.226 Y30.331 E0.08973
G1 X60.104 Y28.980 E0.08975
G1 X61.563 Y28.404 E0.04424
G1 X64.443 Y27.469 E0.08546
G1 X67.539 Y26.740 E0.08973
G1 X70.685 Y26.278 E0.08973
G1 X73.710 Y26.088 E0.08554
G1 X75.279 Y26.086 E0.04429
G1 X78.499 Y26.288 E0.09103
G1 X81.497 Y26.731 E0.08553
G1 X83.077 Y27.065 E0.04558
G1 X84.641 Y27.468 E0.04556
G1 X87.524 Y28.405 E0.08555
G1 X90.501 Y29.657 E0.09113
G1 X93.188 Y31.061 E0.08554
G1 X94.570 Y31.896 E0.04557
G1 X95.914 Y32.791 E0.04555
G1 X98.329 Y34.624 E0.08556
G1 X100.729 Y36.785 E0.09114
G1 X102.804 Y38.995 E0.08553
G1 X103.837 Y40.241 E0.04568
G1 X105.664 Y42.755 E0.08770
G1 X110.825 Y50.589 E0.26474
G1 X111.299 Y51.494 E0.02883
G1 X111.692 Y52.635 E0.03406
G1 X111.861 Y53.526 E0.02559
G1 X111.920 Y54.428 E0.02550
G1 X111.919 Y72.505 E0.51011
G1 X111.861 Y73.387 E0.02495
G1 X111.686 Y74.297 E0.02614
G1 X111.402 Y75.170 E0.02593
G1 X111.005 Y76.013 E0.02627
G1 X104.793 Y85.409 E0.31787
G1 X102.839 Y87.875 E0.08879
G1 X100.731 Y90.123 E0.08696
G1 X99.515 Y91.265 E0.04705
G1 X97.121 Y93.242 E0.08763
G1 X94.570 Y95.013 E0.08763
G1 X91.859 Y96.579 E0.08834
G1 X89.026 Y97.912 E0.08835
G1 X86.091 Y99.003 E0.08837
G1 X83.079 Y99.844 E0.08826
G1 X80.002 Y100.431 E0.08837
G1 X76.889 Y100.758 E0.08835
G1 X73.760 Y100.824 E0.08830
G1 X70.586 Y100.622 E0.08975
G1 X67.590 Y100.179 E0.08546
G1 X66.056 Y99.855 E0.04426
G1 X62.993 Y99.003 E0.08970
G1 X60.013 Y97.892 E0.08976
G1 X57.272 Y96.602 E0.08547
G1 X55.897 Y95.849 E0.04425
G1 X53.210 Y94.147 E0.08976
G1 X50.680 Y92.222 E0.08971
G1 X49.496 Y91.198 E0.04418
G1 X47.332 Y89.079 E0.08547
G1 X45.250 Y86.672 E0.08980
G1 X43.383 Y84.097 E0.08974
G1 X41.814 Y81.506 E0.08548
G1 X41.086 Y80.118 E0.04423
G1 X39.790 Y77.215 E0.08973
G1 X38.747 Y74.210 E0.08975
G1 X37.994 Y71.277 E0.08547
G1 X37.698 Y69.737 E0.04423
G1 X37.297 Y66.583 E0.08973
G1 X37.166 Y63.408 E0.08966
G1 X37.293 Y60.377 E0.08561
G1 X37.455 Y58.820 E0.04418
G1 X37.982 Y55.684 E0.08973
G1 X38.776 Y52.604 E0.08975
G1 X39.772 Y49.742 E0.08553
G1 X40.377 Y48.298 E0.04418
G1 X41.789 Y45.449 E0.08973
G1 X43.436 Y42.733 E0.08962
G1 X44.334 Y41.445 E0.04430
G1 X46.179 Y39.117 E0.08384
G1 F4800
G1 X47.428 Y37.781 E-0.76000
G1 E-0.04000 F2100.00000
G1 Z0.700 F6000.000
G1 X100.322 Y52.868 F6000.000
G1 Z0.200 F6000.000
G1 E0.80000 F2100.00000
G1 F1680
G1 X61.956 Y52.868 E1.08267
G1 X61.956 Y74.042 E0.59751
G1 X100.322 Y74.042 E1.08267
G1 X100.146 Y72.825 E0.03470
G1 X100.135 Y72.264 E0.01583
G1 X100.164 Y71.908 E0.01008
G1 X100.271 Y71.352 E0.01598
G1 X100.374 Y71.010 E0.01008
G1 X100.591 Y70.493 E0.01581
G1 X100.870 Y70.011 E0.01573
G1 X101.081 Y69.719 E0.01016
G1 X101.458 Y69.300 E0.01590
G1 X101.726 Y69.059 E0.01016
G1 X102.184 Y68.726 E0.01598
G1 X102.496 Y68.546 E0.01016
G1 X103.005 Y68.320 E0.01573
G1 X103.541 Y68.158 E0.01581
G1 X103.895 Y68.091 E0.01016
G1 X104.456 Y68.044 E0.01590
G1 X104.814 Y68.051 E0.01008
G1 X105.375 Y68.122 E0.01598
G1 X105.729 Y68.205 E0.01025
G1 X106.077 Y68.318 E0.01034
G1 X106.592 Y68.548 E0.01590
G1 X106.907 Y68.729 E0.01026
G1 X107.205 Y68.937 E0.01026
G1 X107.629 Y69.303 E0.01581
G1 X108.002 Y69.717 E0.01573
G1 X108.214 Y70.008 E0.01016
G1 X108.496 Y70.496 E0.01590
G1 X108.645 Y70.831 E0.01034
G1 X108.765 Y71.174 E0.01025
G1 X108.894 Y71.725 E0.01598
G1 X108.939 Y72.080 E0.01008
G1 X108.951 Y72.637 E0.01573
G1 X108.893 Y73.191 E0.01572
G1 X108.766 Y73.730 E0.01563
G1 X108.573 Y74.249 E0.01563
G1 X108.313 Y74.746 E0.01581
G1 X108.112 Y75.049 E0.01025
G1 X107.887 Y75.333 E0.01025
G1 X107.495 Y75.734 E0.01581
G1 X107.061 Y76.078 E0.01563
G1 X106.387 Y76.485 E0.02223
G1 X105.980 Y77.452 E0.02958
G1 X105.367 Y78.756 E0.04067
G1 X104.699 Y80.033 E0.04068
G1 X103.978 Y81.282 E0.04067
G1 X103.206 Y82.499 E0.04068
G1 X102.383 Y83.682 E0.04067
G1 X101.512 Y84.830 E0.04067
G1 X100.593 Y85.941 E0.04067
G1 X99.628 Y87.012 E0.04067
G1 X98.620 Y88.042 E0.04067
G1 X97.571 Y89.027 E0.04060
G1 X96.478 Y89.971 E0.04075
G1 X95.349 Y90.866 E0.04067
G1 X94.182 Y91.713 E0.04067
G1 X92.982 Y92.511 E0.04068
G1 X91.749 Y93.257 E0.04067
G1 X90.486 Y93.952 E0.04067
G1 X89.195 Y94.593 E0.04067
G1 X87.878 Y95.179 E0.04068
G1 X86.538 Y95.709 E0.04067
G1 X85.177 Y96.183 E0.04067
G1 X83.797 Y96.600 E0.04067
G1 X82.401 Y96.959 E0.04067
G1 X80.991 Y97.258 E0.04067
G1 X79.570 Y97.499 E0.04067
G1 X78.140 Y97.679 E0.04067
G1 X76.703 Y97.800 E0.04067
G1 X75.263 Y97.860 E0.04067
G1 X73.822 Y97.860 E0.04067
G1 X72.382 Y97.800 E0.04067
G1 X70.945 Y97.679 E0.04067
G1 X69.515 Y97.499 E0.04067
G1 X68.094 Y97.258 E0.04067
G1 X66.684 Y96.959 E0.04067
G1 X65.288 Y96.600 E0.04067
G1 X63.911 Y96.184 E0.04061
G1 X62.547 Y95.709 E0.04074
G1 X61.207 Y95.179 E0.04067
G1 X59.890 Y94.593 E0.04068
G1 X58.599 Y93.952 E0.04067
G1 X57.338 Y93.258 E0.04061
G1 X56.103 Y92.511 E0.04073
G1 X54.903 Y91.713 E0.04068
G1 X53.737 Y90.866 E0.04067
G1 X52.607 Y89.970 E0.04067
G1 X51.516 Y89.029 E0.04067
G1 X50.465 Y88.042 E0.04067
G1 X49.457 Y87.012 E0.04067
G1 X48.492 Y85.941 E0.04067
G1 X47.573 Y84.830 E0.04067
G1 X46.702 Y83.682 E0.04067
G1 X45.880 Y82.499 E0.04067
G1 X45.107 Y81.282 E0.04068
G1 X44.386 Y80.033 E0.04067
G1 X43.719 Y78.756 E0.04068
G1 X43.106 Y77.454 E0.04062
G1 X42.546 Y76.123 E0.04073
G1 X42.044 Y74.772 E0.04068
G1 X41.599 Y73.401 E0.04067
G1 X41.211 Y72.013 E0.04067
G1 X40.882 Y70.612 E0.04062
G1 X40.612 Y69.194 E0.04073
G1 X40.401 Y67.768 E0.04067
G1 X40.250 Y66.335 E0.04067
G1 X40.160 Y64.896 E0.04067
G1 X40.130 Y63.455 E0.04067
G1 X40.160 Y62.016 E0.04062
G1 X40.250 Y60.575 E0.04073
G1 X40.401 Y59.142 E0.04067
G1 X40.612 Y57.716 E0.04067
G1 X40.882 Y56.300 E0.04067
G1 X41.211 Y54.897 E0.04067
G1 X41.599 Y53.509 E0.04067
G1 X42.044 Y52.138 E0.04067
G1 X42.546 Y50.787 E0.04068
G1 X43.105 Y49.458 E0.04067
G1 X43.719 Y48.154 E0.04067
G1 X44.387 Y46.875 E0.04073
G1 X45.107 Y45.628 E0.04062
G1 X45.880 Y44.411 E0.04068
G1 X46.702 Y43.228 E0.04067
G1 X47.573 Y42.080 E0.04067
G1 X48.492 Y40.969 E0.04067
G1 X49.457 Y39.898 E0.04067
G1 X50.465 Y38.868 E0.04067
G1 X51.516 Y37.881 E0.04067
G1 X52.607 Y36.939 E0.04067
G1 X53.737 Y36.044 E0.04067
G1 X54.903 Y35.197 E0.04067
G1 X56.103 Y34.399 E0.04068
G1 X57.336 Y33.653 E0.04067
G1 X58.599 Y32.958 E0.04067
G1 X59.890 Y32.317 E0.04067
G1 X61.207 Y31.731 E0.04068
G1 X62.547 Y31.200 E0.04067
G1 X63.908 Y30.726 E0.04067
G1 X65.288 Y30.310 E0.04067
G1 X66.684 Y29.951 E0.04067
G1 X68.094 Y29.652 E0.04067
G1 X69.515 Y29.411 E0.04067
G1 X70.945 Y29.231 E0.04067
G1 X72.382 Y29.110 E0.04067
G1 X73.822 Y29.050 E0.04067
G1 X75.266 Y29.050 E0.04074
G1 X76.703 Y29.110 E0.04061
G1 X78.140 Y29.231 E0.04067
G1 X79.570 Y29.411 E0.04067
G1 X80.991 Y29.652 E0.04067
G1 X82.401 Y29.951 E0.04067
G1 X83.797 Y30.310 E0.04067
G1 X85.177 Y30.726 E0.04067
G1 X86.538 Y31.200 E0.04067
G1 X87.878 Y31.731 E0.04067
G1 X89.195 Y32.317 E0.04068
G1 X90.486 Y32.958 E0.04067
G1 X91.749 Y33.653 E0.04067
G1 X92.982 Y34.399 E0.04067
G1 X94.182 Y35.197 E0.04068
G1 X95.349 Y36.044 E0.04067
G1 X96.478 Y36.939 E0.04067
G1 X97.571 Y37.883 E0.04075
G1 X98.620 Y38.868 E0.04060
G1 X99.628 Y39.898 E0.04067
G1 X100.593 Y40.969 E0.04067
G1 X101.512 Y42.080 E0.04067
G1 X102.383 Y43.228 E0.04067
G1 X103.206 Y44.411 E0.04067
G1 X103.978 Y45.628 E0.04068
G1 X104.699 Y46.876 E0.04067
G1 X105.367 Y48.154 E0.04068
G1 X105.980 Y49.458 E0.04067
G1 X106.387 Y50.424 E0.02958
G1 X107.061 Y50.832 E0.02223
G1 X107.495 Y51.176 E0.01563
G1 X107.882 Y51.572 E0.01563
G1 X108.217 Y52.013 E0.01563
G1 X108.494 Y52.493 E0.01564
G1 X108.710 Y53.007 E0.01573
G1 X108.815 Y53.352 E0.01016
G1 X108.920 Y53.902 E0.01580
G1 X108.955 Y54.461 E0.01581
G1 X108.940 Y54.824 E0.01025
G1 X108.894 Y55.185 E0.01025
G1 X108.765 Y55.736 E0.01598
G1 X108.645 Y56.079 E0.01025
G1 X108.495 Y56.417 E0.01043
G1 X108.317 Y56.741 E0.01043
G1 X108.112 Y57.049 E0.01043
G1 X107.883 Y57.338 E0.01043
G1 X107.630 Y57.607 E0.01043
G1 X107.355 Y57.855 E0.01043
G1 X107.061 Y58.078 E0.01043
G1 X106.749 Y58.276 E0.01043
G1 X106.421 Y58.447 E0.01043
G1 X106.081 Y58.591 E0.01043
G1 X105.729 Y58.705 E0.01043
G1 X105.369 Y58.789 E0.01043
G1 X105.004 Y58.843 E0.01043
G1 X104.635 Y58.866 E0.01043
G1 X104.272 Y58.859 E0.01026
G1 X103.710 Y58.788 E0.01598
G1 X103.356 Y58.705 E0.01025
G1 X103.010 Y58.593 E0.01026
G1 X102.499 Y58.365 E0.01581
G1 X102.019 Y58.074 E0.01581
G1 X101.730 Y57.855 E0.01025
G1 X101.460 Y57.612 E0.01026
G1 X101.081 Y57.191 E0.01598
G1 X100.871 Y56.902 E0.01008
G1 X100.591 Y56.417 E0.01581
G1 X100.374 Y55.900 E0.01581
G1 X100.271 Y55.558 E0.01008
G1 X100.165 Y55.005 E0.01590
G1 X100.135 Y54.646 E0.01016
G1 X100.146 Y54.085 E0.01583
G1 X100.314 Y52.927 E0.03301
G1 X99.887 Y53.245 F6000.000
G1 F1260
G1 X62.333 Y53.245 E1.05974
G1 X62.333 Y73.665 E0.57623
G1 X99.887 Y73.665 E1.05974
G1 X99.770 Y72.856 E0.02306
G1 X99.757 Y72.252 E0.01704
G1 X99.790 Y71.857 E0.01120
G1 X99.904 Y71.262 E0.01710
G1 X100.019 Y70.882 E0.01120
G1 X100.252 Y70.325 E0.01704
G1 X100.553 Y69.805 E0.01695
G1 X100.788 Y69.482 E0.01128
G1 X101.191 Y69.033 E0.01701
G1 X101.488 Y68.766 E0.01128
G1 X101.978 Y68.410 E0.01710
G1 X102.324 Y68.210 E0.01128
G1 X102.873 Y67.966 E0.01695
G1 X103.451 Y67.791 E0.01703
G1 X103.844 Y67.717 E0.01128
G1 X104.444 Y67.666 E0.01701
G1 X104.841 Y67.675 E0.01120
G1 X105.442 Y67.750 E0.01710
G1 X105.831 Y67.842 E0.01126
G1 X106.213 Y67.966 E0.01134
G1 X106.764 Y68.211 E0.01701
G1 X107.109 Y68.411 E0.01126
G1 X107.437 Y68.638 E0.01126
G1 X107.894 Y69.033 E0.01704
G1 X108.296 Y69.479 E0.01695
G1 X108.531 Y69.803 E0.01128
G1 X108.832 Y70.325 E0.01701
G1 X108.996 Y70.692 E0.01134
G1 X109.127 Y71.068 E0.01126
G1 X109.266 Y71.658 E0.01710
G1 X109.315 Y72.052 E0.01120
G1 X109.328 Y72.653 E0.01695
G1 X109.265 Y73.254 E0.01706
G1 X109.128 Y73.839 E0.01697
G1 X108.918 Y74.403 E0.01697
G1 X108.638 Y74.938 E0.01703
G1 X108.418 Y75.270 E0.01126
G1 X108.170 Y75.583 E0.01126
G1 X107.748 Y76.014 E0.01703
G1 X107.276 Y76.388 E0.01697
G1 X106.687 Y76.745 E0.01944
G1 X106.325 Y77.605 E0.02635
G1 X105.704 Y78.924 E0.04112
G1 X105.029 Y80.215 E0.04112
G1 X104.301 Y81.477 E0.04112
G1 X103.520 Y82.707 E0.04112
G1 X102.688 Y83.904 E0.04112
G1 X101.807 Y85.065 E0.04112
G1 X100.878 Y86.187 E0.04112
G1 X99.903 Y87.270 E0.04112
G1 X98.884 Y88.311 E0.04112
G1 X97.824 Y89.307 E0.04104
G1 X96.719 Y90.261 E0.04120
G1 X95.577 Y91.166 E0.04112
G1 X94.398 Y92.023 E0.04112
G1 X93.184 Y92.829 E0.04112
G1 X91.938 Y93.584 E0.04112
G1 X90.661 Y94.286 E0.04112
G1 X89.355 Y94.934 E0.04112
G1 X88.024 Y95.527 E0.04112
G1 X86.669 Y96.063 E0.04112
G1 X85.293 Y96.542 E0.04112
G1 X83.898 Y96.963 E0.04112
G1 X82.487 Y97.326 E0.04112
G1 X81.062 Y97.629 E0.04112
G1 X79.625 Y97.872 E0.04112
G1 X78.179 Y98.054 E0.04112
G1 X76.727 Y98.176 E0.04112
G1 X75.271 Y98.237 E0.04112
G1 X73.814 Y98.237 E0.04112
G1 X72.358 Y98.176 E0.04112
G1 X70.906 Y98.054 E0.04112
G1 X69.460 Y97.872 E0.04112
G1 X68.024 Y97.629 E0.04112
G1 X66.598 Y97.326 E0.04112
G1 X65.187 Y96.963 E0.04112
G1 X63.794 Y96.543 E0.04106
G1 X62.416 Y96.063 E0.04118
G1 X61.061 Y95.527 E0.04112
G1 X59.730 Y94.934 E0.04112
G1 X58.425 Y94.286 E0.04112
G1 X57.150 Y93.585 E0.04106
G1 X55.901 Y92.829 E0.04118
G1 X54.687 Y92.023 E0.04112
G1 X53.509 Y91.166 E0.04112
G1 X52.367 Y90.261 E0.04112
G1 X51.264 Y89.309 E0.04112
G1 X50.201 Y88.311 E0.04112
G1 X49.182 Y87.270 E0.04112
G1 X48.207 Y86.187 E0.04112
G1 X47.278 Y85.065 E0.04112
G1 X46.397 Y83.904 E0.04112
G1 X45.565 Y82.707 E0.04112
G1 X44.785 Y81.477 E0.04112
G1 X44.056 Y80.215 E0.04112
G1 X43.381 Y78.924 E0.04112
G1 X42.761 Y77.607 E0.04106
G1 X42.196 Y76.262 E0.04118
G1 X41.688 Y74.896 E0.04112
G1 X41.237 Y73.510 E0.04112
G1 X40.846 Y72.107 E0.04112
G1 X40.513 Y70.690 E0.04106
G1 X40.240 Y69.257 E0.04117
G1 X40.027 Y67.815 E0.04112
G1 X39.875 Y66.366 E0.04112
G1 X39.783 Y64.912 E0.04112
G1 X39.753 Y63.455 E0.04112
G1 X39.783 Y62.000 E0.04106
G1 X39.875 Y60.544 E0.04117
G1 X40.027 Y59.095 E0.04112
G1 X40.240 Y57.653 E0.04112
G1 X40.513 Y56.222 E0.04112
G1 X40.846 Y54.803 E0.04112
G1 X41.237 Y53.400 E0.04112
G1 X41.688 Y52.014 E0.04112
G1 X42.196 Y50.648 E0.04112
G1 X42.760 Y49.305 E0.04112
G1 X43.381 Y47.986 E0.04112
G1 X44.057 Y46.693 E0.04118
G1 X44.785 Y45.433 E0.04106
G1 X45.565 Y44.202 E0.04112
G1 X46.397 Y43.006 E0.04112
G1 X47.278 Y41.845 E0.04112
G1 X48.207 Y40.723 E0.04112
G1 X49.182 Y39.640 E0.04112
G1 X50.201 Y38.599 E0.04112
G1 X51.264 Y37.601 E0.04112
G1 X52.367 Y36.649 E0.04112
G1 X53.509 Y35.744 E0.04112
G1 X54.687 Y34.887 E0.04112
G1 X55.901 Y34.081 E0.04112
G1 X57.148 Y33.326 E0.04112
G1 X58.425 Y32.624 E0.04112
G1 X59.730 Y31.976 E0.04112
G1 X61.061 Y31.383 E0.04112
G1 X62.416 Y30.847 E0.04112
G1 X63.792 Y30.368 E0.04112
G1 X65.187 Y29.947 E0.04112
G1 X66.598 Y29.584 E0.04112
G1 X68.024 Y29.281 E0.04112
G1 X69.460 Y29.038 E0.04112
G1 X70.906 Y28.856 E0.04112
G1 X72.358 Y28.734 E0.04112
G1 X73.814 Y28.673 E0.04112
G1 X75.274 Y28.673 E0.04119
G1 X76.727 Y28.734 E0.04105
G1 X78.179 Y28.856 E0.04112
G1 X79.625 Y29.038 E0.04112
G1 X81.062 Y29.281 E0.04112
G1 X82.487 Y29.584 E0.04112
G1 X83.898 Y29.947 E0.04112
G1 X85.293 Y30.368 E0.04112
G1 X86.669 Y30.847 E0.04112
G1 X88.024 Y31.383 E0.04112
G1 X89.355 Y31.976 E0.04112
G1 X90.661 Y32.624 E0.04112
G1 X91.938 Y33.326 E0.04112
G1 X93.184 Y34.081 E0.04112
G1 X94.398 Y34.887 E0.04112
G1 X95.577 Y35.744 E0.04112
G1 X96.719 Y36.649 E0.04112
G1 X97.824 Y37.603 E0.04120
G1 X98.884 Y38.599 E0.04104
G1 X99.903 Y39.640 E0.04112
G1 X100.878 Y40.723 E0.04112
G1 X101.807 Y41.845 E0.04112
G1 X102.688 Y43.006 E0.04112
G1 X103.520 Y44.202 E0.04112
G1 X104.301 Y45.433 E0.04112
G1 X105.029 Y46.695 E0.04112
G1 X105.704 Y47.986 E0.04112
G1 X106.325 Y49.305 E0.04112
G1 X106.687 Y50.165 E0.02635
G1 X107.276 Y50.522 E0.01944
G1 X107.748 Y50.896 E0.01697
G1 X108.168 Y51.325 E0.01697
G1 X108.532 Y51.804 E0.01697
G1 X108.833 Y52.325 E0.01697
G1 X109.066 Y52.879 E0.01695
G1 X109.181 Y53.262 E0.01128
G1 X109.294 Y53.855 E0.01703
G1 X109.332 Y54.457 E0.01704
G1 X109.316 Y54.856 E0.01126
G1 X109.266 Y55.252 E0.01126
G1 X109.127 Y55.841 E0.01710
G1 X108.996 Y56.218 E0.01126
G1 X108.833 Y56.585 E0.01132
G1 X108.640 Y56.936 E0.01132
G1 X108.418 Y57.270 E0.01132
G1 X108.169 Y57.585 E0.01132
G1 X107.894 Y57.877 E0.01132
G1 X107.596 Y58.146 E0.01132
G1 X107.276 Y58.388 E0.01132
G1 X106.938 Y58.603 E0.01132
G1 X106.582 Y58.789 E0.01132
G1 X106.212 Y58.944 E0.01132
G1 X105.831 Y59.068 E0.01132
G1 X105.440 Y59.160 E0.01132
G1 X105.043 Y59.219 E0.01132
G1 X104.643 Y59.244 E0.01132
G1 X104.244 Y59.235 E0.01126
G1 X103.643 Y59.159 E0.01710
G1 X103.255 Y59.068 E0.01126
G1 X102.875 Y58.945 E0.01126
G1 X102.324 Y58.700 E0.01703
G1 X101.807 Y58.387 E0.01704
G1 X101.489 Y58.146 E0.01126
G1 X101.193 Y57.879 E0.01126
G1 X100.788 Y57.428 E0.01710
G1 X100.554 Y57.107 E0.01119
G1 X100.252 Y56.585 E0.01704
G1 X100.019 Y56.028 E0.01703
G1 X99.904 Y55.648 E0.01120
G1 X99.791 Y55.056 E0.01701
G1 X99.757 Y54.658 E0.01128
G1 X99.770 Y54.054 E0.01704
G1 X99.878 Y53.304 E0.02137
G1 X99.899 Y52.845 F6000.000
G1 F4800
G1 X98.050 Y53.301 E-0.76000
